X:1
T:Canon in D Major - Pachebel's Canon
T:Variations on a Ground Bass
T:Johann Pachebel (1653 - 1706)
T:arr: Allan James
%%score 1 { ( 2 4 ) | ( 3 5 ) }
L:1/8
Q:1/4=50
M:4/4
K:D
V:1 treble nm="Sopranino Recorder" snm="Si. Rec."
V:2 treble nm="Piano" snm="Pno."
V:4 treble 
V:3 bass 
V:5 bass 
V:1
"^Slow" z8 | z8 |!p! f2 e2 d2 c2 | B2 A2 B2 c2 | d2 c2 B2 A2 | G2 F2 G2 E2 | %6
!mp! (DF)(AG) (FD)(FE) | (DE)(DA) (GB)(AG) | (FD)(Ec) (df)(aA) | (BG)(AF) (Dd){/d} Td>c | %10
!mp! (d/c/)d/D/ (C/A/)E/F/ (D/d/)c/B/ (c/f/)a/f/ | (g/f/)e/g/ (f/e/)d/c/ (B/A/)G/F/ (E/G/)F/E/ | %12
!mf! (D/E/)F/G/ (A/E/)A/G/ (F/B/)A/G/ (A/G/)F/E/ | (D/G/)B/c/ (d/c/)B/A/ (G/F/)E/B/ (A/B/)A/G/ | %14
!mp! F!wedge!f !tenuto!e2 z .D F2 | B2 A2 B2 c2 |!mp! !wedge!d.d c2 z .B d2 | %17
 d3 d !tenuto!d!tenuto!g!tenuto!e!tenuto!a | %18
!mf! (a/f/4)g/4(a/f/4)g/4 .a/4(A/4B/4)c/4d/4e/4f/4g/4 (f/d/4)e/4.f/(F/4G/4) (A/4B/4)A/4G/4A/4F/4G/4A/4 | %19
 (G/B/4)A/4(G/F/4)E/4 .F/4(E/4D/4)E/4F/4G/4A/4B/4 (G/B/4)A/4.B/(c/4d/4) (A/4B/4)c/4d/4e/4f/4g/4a/4 | %20
!mp! (f/d/4)e/4(f/e/4)d/4 .e/4(c/4d/4)e/4f/4e/4d/4c/4 (d/B/4)c/4.d/(D/4E/4) (F/4G/4)F/4E/4F/4d/4c/4d/4 | %21
 (B/d/4)c/4(B/A/4)G/4 .A/4(G/4F/4)G/4A/4B/4c/4d/4 (B/d/4)c/4.d/(c/4B/4) (c/4d/4)e/4d/4c/4d/4B/4c/4 | %22
!mp! !wedge!d.A!wedge!c.A !wedge!B.F!wedge!d.A | %23
!<(! .D!wedge!G.D!wedge!F .D!wedge!G.E!wedge!e!<)! | %24
!mf! !wedge!f/(F/G/)F/ !wedge!E/(e/f/)e/ !wedge!d/(F/D/)B/ !wedge!A/(A/G/)A/ | %25
!mf! !wedge!B/(B/c/)B/ !wedge!A/(A/G/)A/ !wedge!B/(B/A/)B/ !wedge!c/(c/B/)c/ | %26
!mf! d/(d/e/)d/ c/(c/d/)c/ B/(B/A/)B/ c/(c/f/)e/ | %27
!>(! d/(d/e/)g/ f/(F/A/)f/ d/(g/f/)g/ e/(A/G/)A/!>)! | %28
!mp! !wedge!d/(D/4E/4)F/.D/ !wedge!C/(c/4d/4)e/.c/ !wedge!B/(B/4c/4)d/.B/ !wedge!c/(A/4G/4)F/.E/ | %29
!<(! !wedge!D/(G/4F/4)E/.G/ !wedge!F/(D/4E/4)F/.A/ !wedge!G/(B/4A/4)G/.F/ !wedge!E/(A/4G/4)F/.E/!<)! | %30
!mp! !wedge!F/(d/4c/4)d/.F/ !wedge!A/(A/4B/4)c/.A/ !wedge!F/(d/4e/4)f/.d/ !wedge!f/(f/4e/4)d/.c/ | %31
 !wedge!B/(B/4A/4)B/.c/ !wedge!d/(f/4e/4)d/.f/ !wedge!g/(d/4c/4)B/.B/ !wedge!A/E/A/.G/ | %32
 F>f (f/g/)(f/e/) d>d (d/e/)(d/c/) | B2 d2 (d/=c/)(B/c/) A>A | A>A (A/B/)(A/G/) F>f (f/g/)(f/e/) | %35
 (d/=c/)(B/c/) A>A Bd{/d} Td>^c |!mf! d !>!!tenuto!d2 c2 B2 A- | A G2 F- F>E E2 | F f2 e d d2 =c | %39
!<(! B2 dA B2 A2!<)! |!f! A2 A>G F2 f>e | d3 d d2 c2 | %42
 !tenuto!d!tenuto!D!tenuto!C!tenuto!c !tenuto!B!tenuto!B!tenuto!A!tenuto!A | %43
 !tenuto!G!tenuto!g!tenuto!f!tenuto!F !tenuto!E!tenuto!B!tenuto!E!tenuto!e | fFEe dDCc | %45
 BBAA G>e AA |!ff! !fermata!A2 z2 z4 |] %47
V:2
!p! [FAd]2!<(! [CEAc]2 [B,DFB]2 [A,CFA]2!<)! |!>(! [B,DG]2 [A,DFA]2 [B,DEB]2 [A,CEA]2!>)! | %2
 [A,DFA]2 [EAc]2 [DFB]2 [CEA]2 | [B,DG]2 [A,DF]2 [B,DG]2 [CEA]2 | %4
 [Adf]2 [Ace]2 [FBd]2!>(! [FAc]2!>)! |!>(! [DGB]2 [DFA]2 [DGB]2 [EAc]2!>)! | %6
!p! [Adf]2 [Ace]2 [FBd]2 [FAc]2 | [DGB]2 [DFA]2 [DGB]2 [EAc]2 | d2 c2 B2 A2 | G2 F2 D2 [CE]2 | %10
 (FF)(Ac) (df)(aA) | (BG)(AA) (Gd){/d} Td>c |!mp! (d/c/)d/D/ (E/A/)c/F/ (d/d/)f/B/ (a/f/)a/b/ | %13
 (g/f/)e/g/ (f/e/)d/c/ (Bd){/d} Td>c | %14
!mp! ([Dd]/[Ec]/)[Fd]/[DG]/ ([CA]/[EA]/)[EA]/[FG]/ ([DF]/[Bd]/)[Ac]/[GB]/ ([Ac]/[Gf]/)[ca]/[eb]/ | %15
 ([dg]/[Bf]/)[Be]/[cg]/ ([df]/[ce]/)[Bd]/[Ac]/ ([GB]/[FA]/)[EG]/[FB]/ ([EA]/[GB]/)[FA]/[EG]/ | %16
 Ff e2 z d f2 | b2 a2 b2 c'2 |!mp! !wedge![fd'].[df] [ce]2 z .!^![Bd] [df]2 | b2 a2 b2 c'2 | %20
!mf! (a/f/4)g/4(a/f/4)g/4 .[ca]/4(A/4B/4)c/4d/4e/4f/4g/4 (f/d/4)e/4.f/(F/4G/4) ([Ad]/4B/4)A/4G/4A/4F/4G/4A/4 | %21
 ([Gd]/B/4)A/4(G/F/4)E/4 .F/4(E/4D/4)E/4F/4G/4A/4B/4 ([Gd]/B/4)A/4.[Bg]/(c/4d/4) (A/4B/4)c/4d/4e/4f/4g/4a/4 | %22
 (f/d/4)e/4(f/e/4)d/4 .e/4(c/4d/4)e/4f/4e/4d/4c/4 (d/B/4)c/4.d/(D/4E/4) (F/4G/4)F/4E/4F/4d/4c/4d/4 | %23
 (B/d/4)c/4(B/A/4)G/4 .A/4(G/4F/4)G/4A/4B/4c/4d/4 (B/d/4)c/4.d/(c/4B/4) (c/4d/4)e/4d/4c/4d/4B/4c/4 | %24
 !wedge!d.A!wedge!c.A !wedge!B.F!wedge!d.A |!<(! !wedge!D.G!wedge!D.F !wedge!D.G!wedge!E.e!<)! | %26
!mf! f/(F/G/)F/ E/(e/f/)e/ d/(F/D/)B/ A/(A,/G,/)A,/ | %27
!>(! B,/(B/c/)B/ A/(A,/G,/)A,/ B,/(B/A/)B/ c/(C/B,/)C/!>)! | %28
!p! [FA]/[Af]/[Af]/[Af]/ [Ae]/[Ae]/[Ae]/[Ae]/ [Fd]/[Fd]/[Fd]/[Fd]/ [Fa]/[Fa]/[Aa]/[Aa]/ | %29
 [db]/[db]/[db]/[db]/ [da]/[da]/[da]/[da]/ [db]/[db]/[db]/[db]/ [cc']/[Ac]/[ce]/[Ac]/ | %30
!mp! d/(D/4E/4)F/D/ C/(c/4d/4)e/c/ B/(B,/4C/4)D/B,/ C/(A/4G/4)F/E/ | %31
!<(!!<(! !wedge!D/(G/4F/4)E/G/ !wedge!F/(D/4E/4)F/A/ !wedge!G/(B/4A/4)G/F/ !wedge!E/(A/4G/4)F/E/!<)!!<)! | %32
 Ad c2 B2 A2 | G2 A2 B2 E>E | F>f f/g/f/e/ d>d d/e/d/c/ | B2 d2 (d/=c/)(B/=c/) A>A | %36
 A>[fa] ([fa]/[gb]/)([fa]/[eg]/) [df]>[df] ([df]/[eg]/)([df]/[ce]/) | %37
 (d/=c/)(B/=c/) A>A Gd{/d} Td>^c | A>a (a/b/)(a/g/) f>f (f/g/)(f/e/) | %39
 (d/=c/)(B/=c/) A>A Gd{/d} Td>^c | d f2 e d d'2 =c' |!<(! b2 (d'a) b2 a2!<)! | %42
!f! a f2 e d d'2 =c' | b2 (d'a) b2 a2 | [DFd]D[CEA]c [DFB]B,[A,CF]A | %45
!<(! [DGB]g[Adf]F [B,DEB]B[CEAc]e!<)! |!ff! !arpeggio!!fermata![A,DFAd]2 z2 z4 |] %47
V:3
 [D,A,D]2 [A,,E,A,]2 [B,,F,]2 [F,,C,F,]2 | [G,,D,G,]2 [D,,D,]2 [G,,G,]2 [A,,E,A,]2 | %2
!p! [D,F,]2 A,,2 B,,2 F,,2 | G,,2 D,,2 G,,2 A,,2 | D,2 A,,2 B,,2 F,,2 | G,,2 D,,2 G,,2 A,,2 | %6
 D,2 A,,2 B,,2 F,,2 | G,,2 D,,2 G,,2 A,,2 | [D,A,]2 A,,2 B,,2 F,,2 | G,,2 D,,2 G,,2 A,,2 | %10
 [D,A,]2 A,,2 B,,2"_ALLAN JAMES" F,,2 | G,,2 D,,2 G,,2 A,,2 | [D,A,]2 A,,2 B,,2 F,,2 | %13
 G,,2 D,,2 G,,2 A,,2 | [D,A,]2 A,,2 B,,2 F,,2 | G,,2 D,,2 G,,2 A,,2 | D,2 A,,2 B,,2 F,,2 | %17
 G,,2 D,,2 G,,2 A,,2 | [D,A,D]2 A,,2 B,,2 F,,2 | G,,2 D,,2 G,,2 A,,2 | %20
 [D,A,D]2 [A,,A,]2 [B,,B,]2 [F,,F,]2 | [G,,G,]2 [D,,D,]2 [G,,G,]2 [A,,A,]2 | %22
!mf! [D,A,D]2 [A,,A,]2 [B,,B,]2 [F,,F,]2 | [G,,G,]2 [D,,D,]2 [G,,G,]2 [A,,A,]2 | %24
!mp! [D,A,D]2 [A,,A,]2 [B,,B,]2 [F,,F,]2 | [G,,G,]2 [D,,D,]2 [G,,G,]2 [A,,A,]2 | %26
 [D,A,D]2 [A,,A,]2 [B,,B,]2 [F,,F,]2 | [G,,G,]2 [D,,D,]2 [G,,G,]2 [A,,A,]2 | %28
 [D,A,D]2 [A,,A,]2 [B,,B,]2 [F,,F,]2 | [G,,G,]2 [D,,D,]2 [G,,G,]2 [A,,A,]2 | %30
 [D,A,D]2 [A,,A,]2 [B,,B,]2 [F,,F,]2 | [G,,G,]2 [D,,D,]2 [G,,G,]2 [A,,A,]2 | %32
 [D,A,D]2 [A,,A,]2 [B,,B,]2 [F,,F,]2 | [G,,G,]2 [D,,D,]2 [G,,G,]2 [A,,A,]2 | %34
 [D,A,D]2 [A,,A,]2 [B,,B,]2 [F,,F,]2 | [G,,G,]2 [D,,D,]2 [G,,G,]2 [A,,A,]2 | %36
 [D,A,D]2 [A,,A,]2 [B,,B,]2 [F,,F,]2 | [G,,G,]2 [D,,D,]2 [G,,G,]2 [A,,A,]2 | %38
 [D,A,D]2 [A,,A,]2 [B,,B,]2 [F,,F,]2 | [G,,G,]2 [D,,D,]2 [G,,G,]2 [A,,A,]2 | %40
 [D,A,D]2 [A,,A,]2 [B,,B,]2 [F,,F,]2 | [G,,G,]2 [D,,D,]2 [G,,G,]2 [A,,A,]2 | %42
 [D,A,D]2 [A,,A,]2 [B,,B,]2 [F,,F,]2 | [G,,G,]2 [D,,D,]2 [G,,G,]2 [A,,A,]2 | %44
 [D,A,D]2 [A,,A,]2 [B,,B,]2 [F,,F,]2 | [G,,D,G,]2 [D,,D,]2 [G,,E,G,]2 [A,,E,G,]2 | %46
 !arpeggio!!fermata![D,,A,,]2 z2 z4 |] %47
V:4
 x8 | x8 | x8 | x8 | x8 | x8 | x8 | x8 | DFAG FDFE | [B,D]B,[A,D]A [B,DG]BAG | DDEG F2 c2 | %11
 DB,DF DBAG | FDCE DccA | BGAF D/A/G/F/ E/G/F/E/ | x8 | x8 | x2 (A/E/)A/G/ (F/B/)A/G/ (A/G/)F/E/ | %17
 (d/B/)B/c/ (d/c/)B/A/ (g/f/)e/B/ (a/b/)a/g/ | x8 | d3 d !tenuto!d!tenuto!g!tenuto!e!tenuto!a | %20
 x8 | x8 | x8 | x8 | x8 | x8 | x8 | x8 | x8 | x8 | x8 | x8 | D A2 A D3 A | D>E F2 GD D>C | x8 | %35
 x8 | x8 | B2 d2 d/=c/B/=c/ A>A | D d2 c2 B2 A- | A G2 F- F>E E2 | F d2 c2 b2 a- | a g2 f- f>e e2 | %42
 FA A>G F2 f>e | d3 d d2 c2 | x8 | x8 | x8 |] %47
V:5
 x8 | x8 | x8 | x8 | x8 | x8 | x8 | x8 | x8 | x8 | x8 | x8 | x8 | x8 | x8 | x8 | D/E/F/G/ z2 z4 | %17
 x8 | x8 | x8 | x8 | x8 | x8 | x8 | x8 | x8 | x8 | x8 | x8 | x8 | x8 | x8 | x8 | x8 | x8 | x8 | %36
 x8 | x8 | x8 | x8 | x8 | x8 | x8 | x8 | x8 | x8 | x8 |] %47

